apps/scalable/xchat-gnome.svg

<svg height="48" width="48" xmlns="http://www.w3.org/2000/svg" xmlns:xlink="http://www.w3.org/1999/xlink"><linearGradient gradientUnits="userSpaceOnUse" x1="390.9964" x2="390.20126" y1="546.81189" y2="510.45325"><stop offset="0" stop-color="#23262c"/><stop offset="1" stop-color="#525b63"/></linearGradient><linearGradient id="a" gradientUnits="userSpaceOnUse" x1="341.06265" x2="340.27582" y1="553.66864" y2="510.17819"><stop offset="0" stop-color="#383c46"/><stop offset="1" stop-color="#636d77"/></linearGradient><g transform="matrix(1.023376 0 0 1.023376 -.513312 -.648005)"><path d="m358.77104 516.99793c-4.8234-3.92542-11.22786-6.08712-18.03349-6.08712-6.80575 0-13.21022 2.16185-18.03349 6.08712-4.86535 3.9595-7.54482 9.23646-7.54482 14.859 0 5.36635 2.44243 10.41704 6.89488 14.30854-.0803.18057-.144.37054-.18468.57028l-1.46301 7.19633c-.17395.85525.0599 1.36523.28634 1.64263.26189.3204.65007.49697 1.09314.49697.33452 0 .69405-.0987 1.06868-.29345l8.50944-4.42073c2.94612.94828 6.11338 1.44552 9.37335 1.44552 6.80578 0 13.21008-2.16181 18.03351-6.08708 4.8652-3.95938 7.54467-9.23635 7.54467-14.85888 0-5.62267-2.67934-10.89963-7.54454-14.85913z" fill="url(#a)" transform="matrix(.916867762746 0 0 .916867762746 -288.371770112966 -465.01707091912)"/><path d="m14.453378 15.715908 2.590908-2.590908 6.909092 6.909091 6.909092-6.909091 2.590908 2.590908-6.909091 6.909092 6.909091 6.909092-2.590908 2.590908-6.909092-6.909091-6.909092 6.909091-2.590908-2.590908 6.909091-6.909092z" fill="#fff" fill-opacity=".846774"/></g></svg>

<?xml version="1.0" encoding="UTF-8" standalone="no"?>
<!-- Created with Inkscape (http://www.inkscape.org/) -->

<svg
   xmlns:osb="http://www.openswatchbook.org/uri/2009/osb"
   xmlns:dc="http://purl.org/dc/elements/1.1/"
   xmlns:cc="http://creativecommons.org/ns#"
   xmlns:rdf="http://www.w3.org/1999/02/22-rdf-syntax-ns#"
   xmlns:svg="http://www.w3.org/2000/svg"
   xmlns="http://www.w3.org/2000/svg"
   xmlns:xlink="http://www.w3.org/1999/xlink"
   xmlns:sodipodi="http://sodipodi.sourceforge.net/DTD/sodipodi-0.dtd"
   xmlns:inkscape="http://www.inkscape.org/namespaces/inkscape"
   width="48px"
   height="48px"
   id="svg2985"
   version="1.1"
   inkscape:version="0.91 r13725"
   sodipodi:docname="xchat.svg">
  <defs
     id="defs2987">
    <linearGradient
       inkscape:collect="always"
       id="linearGradient4260">
      <stop
         style="stop-color:#23262c;stop-opacity:1"
         offset="0"
         id="stop4262" />
      <stop
         style="stop-color:#525b63;stop-opacity:1"
         offset="1"
         id="stop4264" />
    </linearGradient>
    <linearGradient
       id="linearGradient4501">
      <stop
         id="stop4503"
         offset="0"
         style="stop-color:#ff9c00;stop-opacity:1" />
      <stop
         id="stop4505"
         offset="1"
         style="stop-color:#ff4848;stop-opacity:1" />
    </linearGradient>
    <linearGradient
       id="linearGradient4491">
      <stop
         style="stop-color:#383c46;stop-opacity:1"
         offset="0"
         id="stop4493" />
      <stop
         style="stop-color:#636d77;stop-opacity:1"
         offset="1"
         id="stop4495" />
    </linearGradient>
    <linearGradient
       id="linearGradient4207"
       osb:paint="gradient">
      <stop
         style="stop-color:#3498db;stop-opacity:1;"
         offset="0"
         id="stop3371" />
      <stop
         style="stop-color:#3498db;stop-opacity:0;"
         offset="1"
         id="stop3373" />
    </linearGradient>
    <linearGradient
       inkscape:collect="always"
       xlink:href="#linearGradient4260"
       id="linearGradient4258"
       x1="390.9964"
       y1="546.81189"
       x2="390.20126"
       y2="510.45325"
       gradientUnits="userSpaceOnUse" />
    <linearGradient
       inkscape:collect="always"
       xlink:href="#linearGradient4260"
       id="linearGradient4268"
       gradientUnits="userSpaceOnUse"
       x1="390.9964"
       y1="546.81189"
       x2="390.20126"
       y2="510.45325" />
    <linearGradient
       inkscape:collect="always"
       xlink:href="#linearGradient4260"
       id="linearGradient4270"
       gradientUnits="userSpaceOnUse"
       x1="390.9964"
       y1="546.81189"
       x2="390.20126"
       y2="510.45325" />
    <linearGradient
       inkscape:collect="always"
       xlink:href="#linearGradient4491"
       id="linearGradient4183"
       x1="341.06265"
       y1="553.66864"
       x2="340.27582"
       y2="510.17819"
       gradientUnits="userSpaceOnUse" />
  </defs>
  <sodipodi:namedview
     id="base"
     pagecolor="#5a5a5a"
     bordercolor="#666666"
     borderopacity="1.0"
     inkscape:pageopacity="0"
     inkscape:pageshadow="2"
     inkscape:zoom="8"
     inkscape:cx="4.25"
     inkscape:cy="24.916977"
     inkscape:current-layer="g4177"
     showgrid="false"
     inkscape:grid-bbox="true"
     inkscape:document-units="px"
     inkscape:snap-global="true"
     inkscape:window-width="1366"
     inkscape:window-height="630"
     inkscape:window-x="0"
     inkscape:window-y="36"
     inkscape:window-maximized="0"
     showguides="false"
     showborder="false">
    <inkscape:grid
       type="xygrid"
       id="grid2993" />
  </sodipodi:namedview>
  <metadata
     id="metadata2990">
    <rdf:RDF>
      <cc:Work
         rdf:about="">
        <dc:format>image/svg+xml</dc:format>
        <dc:type
           rdf:resource="http://purl.org/dc/dcmitype/StillImage" />
        <dc:title />
      </cc:Work>
    </rdf:RDF>
  </metadata>
  <g
     id="layer1"
     inkscape:label="Layer 1"
     inkscape:groupmode="layer">
    <g
       id="g4177"
       transform="matrix(1.023376,0,0,1.023376,-0.51331238,-0.64800515)">
      <g
         inkscape:label="Layer 1"
         id="layer1-0"
         transform="matrix(1.0711393,0,0,1.0711393,-413.76277,-537.1175)">
        <g
           id="layer1-29"
           inkscape:label="Layer 1"
           transform="matrix(1.0520189,0,0,1.0520189,-2.22122,-27.871326)">
          <g
             style="fill:url(#linearGradient4258);fill-opacity:1"
             transform="translate(0.80041,-4.19993)"
             inkscape:label="Layer 1"
             id="layer1-2">
            <g
               style="fill:url(#linearGradient4268);fill-opacity:1"
               id="g4275"
               transform="matrix(0.81364921,0,0,0.81364921,112.58579,94.676663)">
              <path
                 style="fill:url(#linearGradient4183);fill-opacity:1"
                 sodipodi:nodetypes="csssccccccccscscc"
                 inkscape:connector-curvature="0"
                 id="path3"
                 d="m 358.77104,516.99793 c -4.8234,-3.92542 -11.22786,-6.08712 -18.03349,-6.08712 -6.80575,0 -13.21022,2.16185 -18.03349,6.08712 -4.86535,3.9595 -7.54482,9.23646 -7.54482,14.859 0,5.36635 2.44243,10.41704 6.89488,14.30854 -0.0803,0.18057 -0.144,0.37054 -0.18468,0.57028 l -1.46301,7.19633 c -0.17395,0.85525 0.0599,1.36523 0.28634,1.64263 0.26189,0.3204 0.65007,0.49697 1.09314,0.49697 l 0,0 c 0.33452,0 0.69405,-0.0987 1.06868,-0.29345 l 8.50944,-4.42073 c 2.94612,0.94828 6.11338,1.44552 9.37335,1.44552 6.80578,0 13.21008,-2.16181 18.03351,-6.08708 4.8652,-3.95938 7.54467,-9.23635 7.54467,-14.85888 0,-5.62267 -2.67934,-10.89963 -7.54454,-14.85913 z" />
            </g>
            <g
               style="fill:url(#linearGradient4270);fill-opacity:1"
               transform="matrix(0.83374987,0,0,0.83374987,87.111415,79.282571)"
               id="g4337" />
          </g>
        </g>
      </g>
      <path
         sodipodi:nodetypes="ccccccccccccc"
         inkscape:connector-curvature="0"
         id="path4481"
         d="M 14.453378,15.715908 17.044286,13.125 23.953378,20.034091 30.86247,13.125 33.453378,15.715908 26.544287,22.625 33.453378,29.534092 30.86247,32.125 23.953378,25.215909 17.044286,32.125 14.453378,29.534092 21.362469,22.625 Z"
         style="fill:#ffffff;fill-opacity:0.84677423;stroke:#000000;stroke-width:0;stroke-linecap:butt;stroke-linejoin:miter;stroke-miterlimit:4;stroke-dasharray:none;stroke-opacity:1" />
    </g>
  </g>
</svg>
